local/share/icons/dracula-icons-main/scalable/apps/lock.svg

<?xml version="1.0" encoding="UTF-8"?>
<svg xmlns="http://www.w3.org/2000/svg" xmlns:xlink="http://www.w3.org/1999/xlink" width="64" height="64" viewBox="0 0 64 64">
<path fill-rule="nonzero" fill="rgb(99.607843%, 68.627451%, 15.294118%)" fill-opacity="1" d="M 8.378906 1.324219 C 10.953125 1.289062 13.347656 2.644531 14.644531 4.867188 C 15.941406 7.089844 15.941406 9.839844 14.644531 12.066406 C 13.347656 14.289062 10.953125 15.644531 8.378906 15.609375 C 4.472656 15.558594 1.328125 12.375 1.328125 8.464844 C 1.328125 4.558594 4.472656 1.375 8.378906 1.324219 Z M 8.378906 1.324219 "/>
<path fill-rule="nonzero" fill="rgb(100%, 100%, 100%)" fill-opacity="1" d="M 6.351562 7.9375 C 6.210938 7.9375 6.074219 7.992188 5.976562 8.089844 C 5.875 8.191406 5.820312 8.328125 5.820312 8.46875 L 5.820312 11.113281 C 5.820312 11.40625 6.058594 11.640625 6.351562 11.640625 L 10.582031 11.640625 C 10.875 11.640625 11.113281 11.40625 11.113281 11.113281 L 11.113281 8.46875 C 11.113281 8.328125 11.058594 8.191406 10.957031 8.089844 C 10.859375 7.992188 10.722656 7.9375 10.582031 7.9375 Z M 8.46875 8.730469 C 8.757812 8.730469 8.996094 8.96875 8.996094 9.261719 C 8.996094 9.449219 8.894531 9.625 8.730469 9.71875 L 8.730469 10.582031 C 8.730469 10.730469 8.613281 10.847656 8.464844 10.847656 C 8.320312 10.847656 8.203125 10.730469 8.203125 10.582031 L 8.203125 9.71875 C 8.039062 9.625 7.9375 9.449219 7.9375 9.261719 C 7.9375 8.96875 8.175781 8.730469 8.46875 8.730469 Z M 8.46875 8.730469 "/>
<path fill-rule="nonzero" fill="rgb(100%, 100%, 100%)" fill-opacity="1" d="M 8.46875 4.761719 C 7.585938 4.761719 6.878906 5.46875 6.878906 6.347656 L 6.878906 9.523438 C 6.878906 10.402344 7.585938 11.113281 8.46875 11.113281 C 8.1875 11.113281 7.917969 11 7.71875 10.800781 C 7.519531 10.601562 7.40625 10.332031 7.40625 10.050781 L 7.40625 6.347656 C 7.40625 5.761719 7.878906 5.292969 8.46875 5.292969 C 9.054688 5.292969 9.523438 5.761719 9.523438 6.347656 L 9.523438 10.054688 C 9.523438 10.640625 9.054688 11.113281 8.46875 11.113281 C 9.347656 11.113281 10.054688 10.40625 10.054688 9.523438 L 10.054688 6.347656 C 10.054688 5.46875 9.347656 4.761719 8.46875 4.761719 Z M 8.46875 4.761719 "/>
</svg>

<svg width="64" height="64" version="1.1" viewBox="0 0 16.933 16.933" xmlns="http://www.w3.org/2000/svg">
 <path d="m8.3803 1.3234a7.1436 7.1436 0 1 1 0 14.286 7.1436 7.1436 0 0 1 0-14.286z" fill="#feaf27"/>
 <g fill="#fff" paint-order="stroke fill markers">
  <path d="M6.35 7.937a.528.528 0 0 0-.53.53v2.645c0 .294.237.53.53.53h4.233c.293 0 .53-.236.53-.53V8.467a.528.528 0 0 0-.53-.53zm2.117.794a.53.53 0 0 1 .529.53.53.53 0 0 1-.265.457v.865a.264.264 0 1 1-.529 0v-.865a.53.53 0 0 1-.265-.458.53.53 0 0 1 .53-.529z"/>
  <path d="m8.467 4.7614c-0.88 0-1.588 0.708-1.588 1.587v3.175c0 0.88 0.708 1.588 1.588 1.588a1.056 1.056 0 0 1-1.059-1.059v-3.703c0-0.586 0.472-1.058 1.059-1.058 0.586 0 1.058 0.472 1.058 1.058v3.704c0 0.587-0.472 1.059-1.058 1.059 0.88 0 1.587-0.708 1.587-1.588v-3.175c0-0.88-0.708-1.587-1.587-1.587z"/>
 </g>
</svg>
